static/logos/mcp-glyph-black.svg

<svg width="64" height="64" viewBox="0 0 64 64" fill="none" xmlns="http://www.w3.org/2000/svg">
<path d="M8.79688 30L30.7969 8C33.7969 5 38.7969 5 41.7969 8C44.7969 11 44.7969 16 41.7969 19M41.7969 19L25.1969 35.6M41.7969 19C44.7969 16 49.7969 16 52.7969 19L52.9109 19.114C55.9109 22.114 55.9109 27.114 52.9109 30.114L32.9109 50.114C31.8909 51.134 31.8909 52.714 32.9109 53.714L36.9109 57.714M36.1109 13.714L19.9109 29.914C16.9109 32.914 16.9109 37.914 19.9109 40.914C22.9109 43.914 27.9109 43.914 30.9109 40.914L47.1109 24.714" stroke="black" stroke-width="3.4" stroke-linecap="round"/>
</svg>

<svg xmlns="http://www.w3.org/2000/svg" width="64" height="64" fill="none" viewBox="0 0 64 64"><path stroke="#000" stroke-linecap="round" stroke-width="3.4" d="m8.797 30 22-22c3-3 8-3 11 0s3 8 0 11m0 0-16.6 16.6m16.6-16.6c3-3 8-3 11 0l.114.114c3 3 3 8 0 11l-20 20c-1.02 1.02-1.02 2.6 0 3.6l4 4m-.8-44-16.2 16.2c-3 3-3 8 0 11s8 3 11 0l16.2-16.2"/></svg>
